assets/img/braze_icons/upload-02.svg

<svg fill="none" height="24" viewBox="0 0 24 24" width="24" xmlns="http://www.w3.org/2000/svg"><g fill="#801ed7"><path d="m2 3c0-.55228.44772-1 1-1h18c.5523 0 1 .44772 1 1s-.4477 1-1 1h-18c-.55228 0-1-.44772-1-1z"/><path d="m5.29289 13.7071c.39053.3905 1.02369.3905 1.41422 0l4.29289-4.29289v11.58579c0 .5523.4477 1 1 1s1-.4477 1-1v-11.58579l4.2929 4.29289c.3905.3905 1.0237.3905 1.4142 0s.3905-1.0237 0-1.4142l-6-6.00001c-.3905-.39052-1.0237-.39052-1.4142 0l-6.00001 6.00001c-.39052.3905-.39052 1.0237 0 1.4142z"/></g></svg>

<svg width="24" height="24" viewBox="0 0 24 24" fill="none" xmlns="http://www.w3.org/2000/svg">
<path d="M2 3C2 2.44772 2.44772 2 3 2H21C21.5523 2 22 2.44772 22 3C22 3.55228 21.5523 4 21 4H3C2.44772 4 2 3.55228 2 3Z" fill="#801ED7"/>
<path d="M5.29289 13.7071C5.68342 14.0976 6.31658 14.0976 6.70711 13.7071L11 9.41421L11 21C11 21.5523 11.4477 22 12 22C12.5523 22 13 21.5523 13 21L13 9.41421L17.2929 13.7071C17.6834 14.0976 18.3166 14.0976 18.7071 13.7071C19.0976 13.3166 19.0976 12.6834 18.7071 12.2929L12.7071 6.29289C12.3166 5.90237 11.6834 5.90237 11.2929 6.29289L5.29289 12.2929C4.90237 12.6834 4.90237 13.3166 5.29289 13.7071Z" fill="#801ED7"/>
</svg>
